X:94
T:Vallåt efter Erlandsson
T:(SvL Uppland nr 94)
B:Svenska Låtar Uppland nr 94
R:Vallåt
Z:Nils L
N:Denna låt upptecknades av Nils Andersson vid tävlingen i Uppsala 1909.
M:3/4
L:1/8
K:EDor
g(g/a/ g)e ff | g(g/a/ g)e ff | gg/b/ !fermata!f4 ||
"_gliss."(A,2 E3) || A | dc de fg | gb ba ba | 
fg ab gf | e^d ef ga | ab ba ba | fg e4 |]

